docs/.gitbook/assets/icon-speaker-high-16@light.svg

<svg width="32" height="32" viewBox="0 0 16 16" fill="none" xmlns="http://www.w3.org/2000/svg">
<rect x="0" y="0" width="16" height="16" fill="#fff"/>
<path fill-rule="evenodd" clip-rule="evenodd" d="M9.55724 1.06583C9.82667 1.18682 10 1.45467 10 1.75001V14.25C10 14.5454 9.82667 14.8132 9.55724 14.9342C9.28782 15.0552 8.97247 15.0068 8.75173 14.8106L4.82006 11.3158C4.59124 11.1124 4.29574 11 3.9896 11H2.75C1.7835 11 1 10.2165 1 9.25001V6.75001C1 5.78351 1.7835 5.00001 2.75 5.00001H3.9896C4.29574 5.00001 4.59124 4.88767 4.82006 4.68428L8.75173 1.18946C8.97247 0.99324 9.28782 0.944844 9.55724 1.06583ZM8.5 3.42015L5.8166 5.80539C5.31321 6.25285 4.66311 6.50001 3.9896 6.50001H2.75C2.61193 6.50001 2.5 6.61194 2.5 6.75001V9.25001C2.5 9.38808 2.61193 9.50001 2.75 9.50001H3.9896C4.66312 9.50001 5.31321 9.74718 5.8166 10.1946L8.5 12.5799V3.42015ZM12.2047 3.23505C12.4891 2.93391 12.9638 2.92034 13.265 3.20475L12.7501 3.74989C13.265 3.20475 13.2652 3.20501 13.2655 3.20527L13.2661 3.20583L13.2674 3.20703L13.2703 3.20986L13.2779 3.21714L13.2991 3.23825C13.316 3.25522 13.3381 3.27804 13.3646 3.3067C13.4177 3.364 13.4888 3.44482 13.5717 3.54923C13.7374 3.75789 13.9512 4.06189 14.1628 4.4616C14.5875 5.26366 15 6.44572 15 8.00001C15 9.55431 14.5875 10.7364 14.1628 11.5384C13.9512 11.9381 13.7374 12.2421 13.5717 12.4508C13.4888 12.5552 13.4177 12.636 13.3646 12.6933C13.3381 12.722 13.316 12.7448 13.2991 12.7618L13.2779 12.7829L13.2703 12.7902L13.2674 12.793L13.2661 12.7942L13.2655 12.7948C13.2652 12.795 13.265 12.7953 12.75 12.25L13.265 12.7953C12.9638 13.0797 12.4891 13.0661 12.2047 12.765C11.9215 12.4651 11.9338 11.9932 12.2312 11.7084C12.2312 11.7084 12.2312 11.7084 12.2312 11.7084C12.2318 11.7078 12.2329 11.7067 12.2346 11.705C12.2397 11.6999 12.2498 11.6895 12.2643 11.6739C12.2932 11.6426 12.3393 11.5907 12.397 11.518C12.5126 11.3725 12.6738 11.1452 12.8372 10.8366C13.1625 10.222 13.5 9.27905 13.5 8.00001C13.5 6.72098 13.1625 5.77803 12.8372 5.16343C12.6738 4.8548 12.5126 4.62756 12.397 4.48205C12.3393 4.40937 12.2932 4.35738 12.2643 4.32614C12.2498 4.31053 12.2397 4.30014 12.2346 4.29498C12.233 4.29337 12.2319 4.29227 12.2313 4.29169C12.2313 4.29168 12.2313 4.29168 12.2312 4.29168C11.9338 4.00688 11.9215 3.53492 12.2047 3.23505Z" fill="#000"/>
</svg>

<svg xmlns="http://www.w3.org/2000/svg" width="32" height="32" fill="none" viewBox="0 0 16 16"><path fill="#fff" d="M0 0h16v16H0z"/><path fill="#000" fill-rule="evenodd" d="M9.557 1.066A.75.75 0 0 1 10 1.75v12.5a.75.75 0 0 1-1.248.56L4.82 11.317A1.25 1.25 0 0 0 3.99 11H2.75A1.75 1.75 0 0 1 1 9.25v-2.5C1 5.784 1.784 5 2.75 5h1.24c.306 0 .601-.112.83-.316L8.752 1.19a.75.75 0 0 1 .805-.123M8.5 3.42 5.817 5.805A2.75 2.75 0 0 1 3.99 6.5H2.75a.25.25 0 0 0-.25.25v2.5c0 .138.112.25.25.25h1.24a2.75 2.75 0 0 1 1.827.695L8.5 12.58zm3.705-.185a.75.75 0 0 1 1.06-.03l-.515.545.515-.545h.001l.001.002.003.003.008.007.021.021.066.069q.081.086.207.242c.165.209.38.513.59.913C14.588 5.264 15 6.446 15 8s-.412 2.736-.837 3.538a6 6 0 0 1-.591.913 4 4 0 0 1-.273.31l-.021.022-.008.007-.003.003v.001h-.002l-.515-.544.515.545a.75.75 0 0 1-1.034-1.087l.004-.003.03-.031q.043-.046.132-.156c.116-.146.277-.373.44-.681.325-.615.663-1.558.663-2.837s-.338-2.222-.663-2.837a4.4 4.4 0 0 0-.44-.681 3 3 0 0 0-.166-.19.75.75 0 0 1-.026-1.057" clip-rule="evenodd"/></svg>
